X:1
T:60 Lessons for 2 Guitars, Op.168 - Joseph Küffner (1776 - 1856)
T:Leçon No.55
T:60 Lessons for 2 Guitars, Op.168 "à l'usage des commençants"
T:Joseph Küffner (1776 - 1856)
%%score { ( 1 2 ) ( 3 4 ) } { ( 5 6 ) ( 7 8 ) }
L:1/8
Q:1/4=72
M:2/4
K:F
V:1 treble-8 nm="Classical Guitar"
V:2 treble-8 
V:3 tab stafflines=6 strings=E2,A2,D3,G3,B3,E4 nostems nm="Guitare classique [Tablature]"
V:4 tab stafflines=6 strings=E2,A2,D3,G3,B3,E4 nostems 
V:5 treble-8 nm="Guitare classique"
V:6 treble-8 
V:7 tab stafflines=6 strings=E2,A2,D3,G3,B3,E4 nostems nm="Guitare classique [Tablature]"
V:8 tab stafflines=6 strings=E2,A2,D3,G3,B3,E4 nostems 
V:1
"^Andantino""_" cf (g/f/).e/.d/ | c2 A2 | Bc Ac | GG!<(! GA/B/!<)! |"_cresc." c[cf] [ce][Gd] | %5
"_" g3 [Adf] | [ce][ce] d/f/e/d/ | c2 z2 ::"_" [cg][cg] (f/e/).d/.c/ | %9
 !arpeggio![FAc]2 !arpeggio![Acf]2 | [dg]b ag | [Acf]2 [Gce]2 | cf (g/f/).e/.d/ | c^c d[dg] | %14
 [Acf]f (f/e/).d/.e/ | f2 z2 :| %16
V:2
 [FA]2 z2 | A2 F2 | E2 F2 | CC C2 | AA GF | [EGc]3 A | GG [G,G]2 | x4 :: [EB][EB] z2 | x4 | %10
 [Bd] z z2 | x4 | [FA]2 z2 | AA BB | C z z2 | x4 :| %16
V:3
 !2!C !1!F (!1!G/ !1!F/) !2!E/ !2!D/ | !2!C2 !3!A,2 | !3!B, !2!C !3!A, !2!C | %3
 !3!G, !3!G, !3!G, !3!A,/ !3!B,/ | !2!C [!2!C!1!F] [!2!C!1!E] [!3!G,!2!D] | !1!G3 [!3!A,!2!D!1!F] | %6
 [!2!C!1!E] [!2!C!1!E] !2!D/ !1!F/ !1!E/ !2!D/ | !2!C2 x2 :: %8
 [!2!C!1!G] [!2!C!1!G] (!1!F/ !1!E/) !2!D/ !2!C/ | [!4!F,!3!A,!2!C]2 [!3!A,!2!C!1!F]2 | %10
 [!2!D!1!G] !1!B !1!A !1!G | [!3!A,!2!C!1!F]2 [!3!G,!2!C!1!E]2 | %12
 !2!C !1!F (!1!G/ !1!F/) !2!E/ !2!D/ | !2!C !2!^C !2!D [!2!D!1!G] | %14
 [!3!A,!2!C!1!F] !1!F (!1!F/ !1!E/) !2!D/ !2!E/ | !2!F2 x2 :| %16
V:4
 [!4!F,!3!A,]2 x2 | !3!A,2 !4!F,2 | !4!E,2 !4!F,2 | !5!C, !5!C, !5!C,2 | !3!A, !3!A, !3!G, !4!F, | %5
 [!4!E,!3!G,!2!C]3 x | !3!G, !3!G, [!6!G,,!3!G,]2 | x4 :: [!4!E,!3!B,] [!4!E,!3!B,] x2 | x4 | %10
 !3!B, x x2 | x4 | [!4!F,!3!A,]2 x2 | !3!A, !3!A, !3!B, !3!B, | !5!C, x x2 | x4 :| %16
V:5
"_" z/ A/F/A/ z/ B/F/B/ | z/ A/F/A/ z/ A/F/A/ | z/ G/E/G/ z/ A/F/A/ | z/ G/E/G/ z/ G/E/C/ | %4
 A,/F/F,/F/ z/ [EGc]/z/[FG=B]/ |"_" z/ E/G/c/ z/ F/A/d/ | z/ E/G/c/ z/ D/G/=B/ | z/ E/G/c/ C2 :: %8
"_" z/ E/B/c/ z/ E/B/c/ | z/ F/A/c/ z/ F/A/c/ | z/ B/d/g/ z/ B/d/g/ | z/ A/c/f/ z/ G/c/e/ | %12
 z/ c/A/c/ z/ d/B/d/ | A,/A/A,/A/ B,/B/B,/B/ | z/ F/A/c/ z/ E/B/c/ | z/ F/A/c/ F,2 :| %16
V:6
 F,2 F,2 | F,2 F,2 | C2 C2 | C2 B,2 | A,F, G,G, | E,2 F,2 | G,2 G,2 | C2 x2 :: C2 C2 | F,2 F,2 | %10
 B,2 G,2 | C2 C2 | F,2 B,2 | x4 | C2 C2 | F,2 x2 :| %16
V:7
 x/ !3!A,/ !4!F,/ !3!A,/ x/ !3!B,/ !4!F,/ !3!B,/ | %1
 x/ !3!A,/ !4!F,/ !3!A,/ x/ !3!A,/ !4!F,/ !3!A,/ | %2
 x/ !3!G,/ !4!E,/ !3!G,/ x/ !3!A,/ !4!F,/ !3!A,/ | %3
 x/ !3!G,/ !4!E,/ !3!G,/ x/ !3!G,/ !4!E,/ !5!C,/ | %4
 !5!A,,/ !4!F,/ x/ !4!F,/ x/ [!4!E,!3!G,!2!C]/ x/ [!4!F,!3!G,!2!=B,]/ | %5
 x/ !4!E,/ !3!G,/ !2!C/ x/ !4!F,/ !3!A,/ !2!D/ | x/ !4!E,/ !3!G,/ !2!C/ x/ !4!D,/ !3!G,/ !2!=B,/ | %7
 x/ !4!E,/ !3!G,/ !2!C/ !5!C,2 :: x/ !4!E,/ !3!B,/ !2!C/ x/ !4!E,/ !3!B,/ !2!C/ | %9
 x/ !4!F,/ !3!A,/ !2!C/ x/ !4!F,/ !3!A,/ !2!C/ | x/ !3!B,/ !2!D/ !1!G/ x/ !3!B,/ !2!D/ !1!G/ | %11
 x/ !3!A,/ !2!C/ !1!F/ x/ !3!G,/ !2!C/ !1!E/ | x/ !2!C/ !3!A,/ !2!C/ x/ !2!D/ !3!B,/ !2!D/ | %13
 !5!A,,/ !3!A,/ !5!A,,/ !3!A,/ !5!B,,/ !3!B,/ !5!B,,/ !3!B,/ | %14
 x/ !4!F,/ !3!A,/ !2!C/ x/ !4!E,/ !3!B,/ !2!C/ | x/ !4!F,/ !3!A,/ !2!C/ !6!F,,2 :| %16
V:8
 !6!F,,2 !6!F,,2 | !6!F,,2 !6!F,,2 | !5!C,2 !5!C,2 | !5!C,2 !5!B,,2 | x !6!F,, !6!G,, !6!G,, | %5
 !6!E,,2 !6!F,,2 | !6!G,,2 !6!G,,2 | !5!C,2 x2 :: !5!C,2 !5!C,2 | !6!F,,2 !6!F,,2 | %10
 !5!B,,2 !6!G,,2 | !5!C,2 !5!C,2 | !6!F,,2 !5!B,,2 | x4 | !5!C,2 !5!C,2 | !6!F,,2 x2 :| %16

